public/img/mastercard.svg

<svg id="Laag_1" data-name="Laag 1" xmlns="http://www.w3.org/2000/svg" viewBox="0 0 2000 1556"><defs><style>.cls-1{fill:#231f20;}.cls-2{fill:#f79410;}.cls-3{fill:#ff5f00;}.cls-4{fill:#eb001b;}.cls-5{fill:#f79e1b;}</style></defs><title>Tekengebied 1</title><path class="cls-1" d="M1960.59,1534.9v4h3.73a3.93,3.93,0,0,0,2-.51,1.78,1.78,0,0,0,.75-1.53,1.71,1.71,0,0,0-.75-1.49,3.59,3.59,0,0,0-2-.51h-3.73Zm3.77-2.83a6.92,6.92,0,0,1,4.48,1.3,4.3,4.3,0,0,1,1.57,3.54,4.06,4.06,0,0,1-1.26,3.11,6.14,6.14,0,0,1-3.58,1.49l5,5.7h-3.85l-4.6-5.66h-1.49v5.66h-3.22v-15.13h7Zm-1,20.36a12,12,0,0,0,4.91-1,12.86,12.86,0,0,0,4-2.71,12.63,12.63,0,0,0,2.71-4,12.94,12.94,0,0,0,0-9.9,13.07,13.07,0,0,0-2.71-4,12.89,12.89,0,0,0-4-2.71,12.59,12.59,0,0,0-4.91-.94,13.12,13.12,0,0,0-5,.94,12.77,12.77,0,0,0-4.09,2.71,12.92,12.92,0,0,0-2.67,14,11.92,11.92,0,0,0,2.67,4,12.81,12.81,0,0,0,4.09,2.71,12.45,12.45,0,0,0,5,1m0-29a16.74,16.74,0,0,1,11.75,4.8,16,16,0,0,1,3.54,5.19,16.09,16.09,0,0,1,0,12.65,16.88,16.88,0,0,1-3.54,5.19,17.85,17.85,0,0,1-5.27,3.5,16.33,16.33,0,0,1-6.48,1.3,16.6,16.6,0,0,1-6.56-1.3,17.08,17.08,0,0,1-5.31-3.5A16.88,16.88,0,0,1,1948,1546a16.09,16.09,0,0,1,0-12.65,16,16,0,0,1,3.54-5.19,15.8,15.8,0,0,1,5.31-3.5,16.6,16.6,0,0,1,6.56-1.3M432.16,1465.1c0-28.85,18.9-52.55,49.79-52.55,29.52,0,49.44,22.68,49.44,52.55s-19.92,52.55-49.44,52.55c-30.89,0-49.79-23.7-49.79-52.55m132.88,0V1383H529.35V1403c-11.32-14.78-28.49-24.05-51.84-24.05-46,0-82.1,36.08-82.1,86.19s36.08,86.19,82.1,86.19c23.34,0,40.52-9.28,51.84-24.05v19.93H565V1465.1Zm1205.92,0c0-28.85,18.9-52.55,49.8-52.55,29.55,0,49.44,22.68,49.44,52.55s-19.89,52.55-49.44,52.55c-30.89,0-49.8-23.7-49.8-52.55m132.92,0v-148h-35.72V1403c-11.32-14.78-28.49-24.05-51.84-24.05-46,0-82.1,36.08-82.1,86.19s36.08,86.19,82.1,86.19c23.35,0,40.52-9.28,51.84-24.05v19.93h35.72V1465.1ZM1008,1410.86c23,0,37.77,14.42,41.54,39.81H964.38c3.81-23.7,18.2-39.81,43.63-39.81m.71-32c-48.1,0-81.75,35-81.75,86.19,0,52.19,35,86.19,84.14,86.19,24.72,0,47.36-6.17,67.28-23l-17.49-26.45c-13.76,11-31.28,17.17-47.75,17.17-23,0-43.94-10.65-49.09-40.2h121.87c.35-4.44.71-8.92.71-13.72-.36-51.17-32-86.19-77.94-86.19m430.9,86.19c0-28.85,18.9-52.55,49.79-52.55,29.52,0,49.44,22.68,49.44,52.55s-19.92,52.55-49.44,52.55c-30.89,0-49.8-23.7-49.8-52.55m132.88,0V1383H1536.8V1403c-11.36-14.78-28.49-24.05-51.84-24.05-46,0-82.1,36.08-82.1,86.19s36.08,86.19,82.1,86.19c23.35,0,40.48-9.28,51.84-24.05v19.93h35.68V1465.1Zm-334.42,0c0,49.79,34.66,86.19,87.56,86.19,24.72,0,41.19-5.5,59-19.57l-17.14-28.85c-13.4,9.63-27.47,14.78-43,14.78-28.49-.35-49.44-20.95-49.44-52.55s20.95-52.19,49.44-52.55c15.49,0,29.56,5.15,43,14.78l17.14-28.85c-17.84-14.07-34.31-19.57-59-19.57-52.9,0-87.56,36.39-87.56,86.19m460.1-86.19c-20.59,0-34,9.63-43.27,24.05V1383h-35.37v164.12h35.73v-92c0-27.16,11.67-42.25,35-42.25a57.87,57.87,0,0,1,22.32,4.13l11-33.64c-7.9-3.11-18.2-4.48-25.43-4.48m-956.64,17.17c-17.17-11.32-40.83-17.17-66.93-17.17-41.58,0-68.35,19.93-68.35,52.54,0,26.76,19.93,43.27,56.63,48.42l16.86,2.4c19.57,2.75,28.81,7.9,28.81,17.17,0,12.69-13,19.93-37.41,19.93-24.72,0-42.56-7.9-54.59-17.17L599.74,1530c19.57,14.42,44.29,21.3,71.06,21.3,47.4,0,74.87-22.32,74.87-53.57,0-28.85-21.62-43.94-57.34-49.09l-16.82-2.44c-15.45-2-27.83-5.11-27.83-16.11,0-12,11.67-19.22,31.25-19.22,20.95,0,41.23,7.9,51.17,14.07l15.45-28.85ZM1202,1378.91c-20.59,0-34,9.63-43.23,24.05V1383h-35.37v164.12h35.69v-92c0-27.16,11.67-42.25,35-42.25a57.87,57.87,0,0,1,22.32,4.13l11-33.64c-7.9-3.11-18.2-4.48-25.43-4.48M897.44,1383H839.08v-49.79H803V1383H769.71v32.62H803v74.87c0,38.08,14.78,60.76,57,60.76,15.49,0,33.33-4.8,44.65-12.69L894.34,1508c-10.65,6.17-22.32,9.28-31.6,9.28-17.84,0-23.66-11-23.66-27.47v-74.16h58.36ZM363.85,1547.16v-103c0-38.79-24.72-64.89-64.57-65.24-20.95-.35-42.56,6.17-57.69,29.2-11.32-18.2-29.16-29.2-54.24-29.2-17.53,0-34.66,5.15-48.07,24.37V1383H103.56v164.12h36v-91c0-28.49,15.8-43.63,40.2-43.63,23.7,0,35.69,15.45,35.69,43.27v91.34h36.08v-91c0-28.49,16.47-43.63,40.16-43.63,24.37,0,36,15.45,36,43.27v91.34Z"/><path class="cls-2" d="M1980.94,1001.22v-24h-6.25l-7.23,16.47-7.19-16.47H1954v24h4.44V983.14l6.76,15.6h4.6l6.76-15.64v18.12h4.4Zm-39.65,0V981.33h8v-4.05h-20.44v4.05h8v19.89h4.4Z"/><path class="cls-3" d="M1270.57,1104.15H729.71v-972h540.87Z"/><path class="cls-4" d="M764,618.17c0-197.17,92.32-372.81,236.08-486A615.46,615.46,0,0,0,618.09,0C276.72,0,0,276.76,0,618.17s276.72,618.17,618.09,618.17a615.46,615.46,0,0,0,382-132.17C856.34,991,764,815.35,764,618.17"/><path class="cls-5" d="M2000.25,618.17c0,341.41-276.72,618.17-618.09,618.17a615.65,615.65,0,0,1-382.05-132.17c143.8-113.19,236.12-288.82,236.12-486s-92.32-372.81-236.12-486A615.65,615.65,0,0,1,1382.15,0c341.37,0,618.09,276.76,618.09,618.17"/></svg>

<?xml version="1.0" encoding="UTF-8" standalone="no"?>
<!DOCTYPE svg PUBLIC "-//W3C//DTD SVG 1.1//EN" "http://www.w3.org/Graphics/SVG/1.1/DTD/svg11.dtd">
<svg width="100%" height="100%" viewBox="0 0 691 438" version="1.1" xmlns="http://www.w3.org/2000/svg" xmlns:xlink="http://www.w3.org/1999/xlink" xml:space="preserve" xmlns:serif="http://www.serif.com/" style="fill-rule:evenodd;clip-rule:evenodd;stroke-linejoin:round;stroke-miterlimit:2;">
    <g transform="matrix(1,0,0,1,-980,-77.5)">
        <g>
            <g transform="matrix(1,0,0,1,952,-221.5)">
                <rect x="28" y="299" width="691" height="438" style="fill:white;"/>
            </g>
            <g id="mastercard.svg" transform="matrix(0.222365,0,0,0.222365,1325.5,296.5)">
                <g transform="matrix(1,0,0,1,-1000,-778)">
                    <clipPath id="_clip1">
                        <rect x="0" y="0" width="2000" height="1556"/>
                    </clipPath>
                    <g clip-path="url(#_clip1)">
                        <path d="M1960.59,1534.86L1960.59,1538.9L1964.32,1538.9C1965.02,1538.91 1965.71,1538.74 1966.32,1538.39C1966.81,1538.04 1967.1,1537.46 1967.07,1536.86C1967.1,1536.27 1966.81,1535.7 1966.32,1535.37C1965.72,1535.01 1965.02,1534.83 1964.32,1534.86L1960.59,1534.86ZM1964.36,1532.07C1965.96,1531.97 1967.54,1532.43 1968.84,1533.37C1969.89,1534.23 1970.48,1535.55 1970.41,1536.91C1970.46,1538.08 1970,1539.21 1969.15,1540.02C1968.15,1540.89 1966.89,1541.41 1965.57,1541.51L1970.57,1547.21L1966.72,1547.21L1962.12,1541.55L1960.63,1541.55L1960.63,1547.21L1957.41,1547.21L1957.41,1532.08L1964.41,1532.08L1964.36,1532.07ZM1963.36,1552.43C1965.05,1552.45 1966.72,1552.11 1968.27,1551.43C1969.76,1550.79 1971.12,1549.87 1972.27,1548.72C1973.42,1547.57 1974.34,1546.22 1974.98,1544.72C1976.29,1541.55 1976.29,1537.99 1974.98,1534.82C1974.33,1533.33 1973.41,1531.97 1972.27,1530.82C1971.12,1529.67 1969.76,1528.75 1968.27,1528.11C1966.71,1527.47 1965.04,1527.15 1963.36,1527.17C1961.65,1527.15 1959.95,1527.47 1958.36,1528.11C1956.83,1528.74 1955.44,1529.66 1954.27,1530.82C1950.66,1534.52 1949.61,1540.05 1951.6,1544.82C1952.21,1546.32 1953.12,1547.68 1954.27,1548.82C1955.45,1549.98 1956.84,1550.9 1958.36,1551.53C1959.94,1552.2 1961.64,1552.55 1963.36,1552.53M1963.36,1523.53C1967.75,1523.53 1971.98,1525.25 1975.11,1528.33C1976.62,1529.81 1977.83,1531.57 1978.65,1533.52C1980.38,1537.56 1980.38,1542.13 1978.65,1546.17C1977.81,1548.11 1976.6,1549.87 1975.11,1551.36C1973.58,1552.83 1971.79,1554.02 1969.84,1554.86C1967.79,1555.73 1965.59,1556.17 1963.36,1556.16C1961.11,1556.18 1958.88,1555.73 1956.8,1554.86C1954.83,1554.04 1953.03,1552.85 1951.49,1551.36C1950,1549.81 1948.81,1547.99 1948,1546C1946.27,1541.96 1946.27,1537.39 1948,1533.35C1948.83,1531.4 1950.03,1529.64 1951.54,1528.16C1953.05,1526.65 1954.86,1525.45 1956.85,1524.66C1958.93,1523.79 1961.16,1523.34 1963.41,1523.36M432.16,1465.1C432.16,1436.25 451.06,1412.55 481.95,1412.55C511.47,1412.55 531.39,1435.23 531.39,1465.1C531.39,1494.97 511.47,1517.65 481.95,1517.65C451.06,1517.65 432.16,1493.95 432.16,1465.1M565.04,1465.1L565.04,1383L529.35,1383L529.35,1403C518.03,1388.22 500.86,1378.95 477.51,1378.95C431.51,1378.95 395.41,1415.03 395.41,1465.14C395.41,1515.25 431.49,1551.33 477.51,1551.33C500.85,1551.33 518.03,1542.05 529.35,1527.28L529.35,1547.21L565,1547.21L565,1465.1L565.04,1465.1ZM1770.96,1465.1C1770.96,1436.25 1789.86,1412.55 1820.76,1412.55C1850.31,1412.55 1870.2,1435.23 1870.2,1465.1C1870.2,1494.97 1850.31,1517.65 1820.76,1517.65C1789.87,1517.65 1770.96,1493.95 1770.96,1465.1M1903.88,1547.21L1903.88,1317.1L1868.16,1317.1L1868.16,1403C1856.84,1388.22 1839.67,1378.95 1816.32,1378.95C1770.32,1378.95 1734.22,1415.03 1734.22,1465.14C1734.22,1515.25 1770.3,1551.33 1816.32,1551.33C1839.67,1551.33 1856.84,1542.05 1868.16,1527.28L1868.16,1547.21L1903.88,1547.21ZM1008,1410.86C1031,1410.86 1045.77,1425.28 1049.54,1450.67L964.38,1450.67C968.19,1426.97 982.58,1410.86 1008.01,1410.86M1008.72,1378.86C960.62,1378.86 926.97,1413.86 926.97,1465.05C926.97,1517.24 961.97,1551.24 1011.11,1551.24C1035.83,1551.24 1058.47,1545.07 1078.39,1528.24L1060.9,1501.79C1047.14,1512.79 1029.62,1518.96 1013.15,1518.96C990.15,1518.96 969.21,1508.31 964.06,1478.76L1085.93,1478.76C1086.28,1474.32 1086.64,1469.84 1086.64,1465.04C1086.28,1413.87 1054.64,1378.85 1008.7,1378.85M1439.6,1465.04C1439.6,1436.19 1458.5,1412.49 1489.39,1412.49C1518.91,1412.49 1538.83,1435.17 1538.83,1465.04C1538.83,1494.91 1518.91,1517.59 1489.39,1517.59C1458.5,1517.59 1439.59,1493.89 1439.59,1465.04M1572.47,1465.04L1572.47,1383L1536.8,1383L1536.8,1403C1525.44,1388.22 1508.31,1378.95 1484.96,1378.95C1438.96,1378.95 1402.86,1415.03 1402.86,1465.14C1402.86,1515.25 1438.94,1551.33 1484.96,1551.33C1508.31,1551.33 1525.44,1542.05 1536.8,1527.28L1536.8,1547.21L1572.48,1547.21L1572.48,1465.1L1572.47,1465.04ZM1238.05,1465.04C1238.05,1514.83 1272.71,1551.23 1325.61,1551.23C1350.33,1551.23 1366.8,1545.73 1384.61,1531.66L1367.47,1502.81C1354.07,1512.44 1340,1517.59 1324.47,1517.59C1295.98,1517.24 1275.03,1496.64 1275.03,1465.04C1275.03,1433.44 1295.98,1412.85 1324.47,1412.49C1339.96,1412.49 1354.03,1417.64 1367.47,1427.27L1384.61,1398.42C1366.77,1384.35 1350.3,1378.85 1325.61,1378.85C1272.71,1378.85 1238.05,1415.24 1238.05,1465.04M1698.15,1378.85C1677.56,1378.85 1664.15,1388.48 1654.88,1402.9L1654.88,1383L1619.51,1383L1619.51,1547.12L1655.24,1547.12L1655.24,1455.12C1655.24,1427.96 1666.91,1412.87 1690.24,1412.87C1697.88,1412.76 1705.47,1414.16 1712.56,1417L1723.56,1383.36C1715.66,1380.25 1705.36,1378.88 1698.13,1378.88M741.49,1396.05C724.32,1384.73 700.66,1378.88 674.56,1378.88C632.98,1378.88 606.21,1398.81 606.21,1431.42C606.21,1458.18 626.14,1474.69 662.84,1479.84L679.7,1482.24C699.27,1484.99 708.51,1490.14 708.51,1499.41C708.51,1512.1 695.51,1519.34 671.1,1519.34C646.38,1519.34 628.54,1511.44 616.51,1502.17L599.74,1530C619.31,1544.42 644.03,1551.3 670.8,1551.3C718.2,1551.3 745.67,1528.98 745.67,1497.73C745.67,1468.88 724.05,1453.79 688.33,1448.64L671.51,1446.2C656.06,1444.2 643.68,1441.09 643.68,1430.09C643.68,1418.09 655.35,1410.87 674.93,1410.87C695.88,1410.87 716.16,1418.77 726.1,1424.94L741.55,1396.09L741.49,1396.05ZM1202,1378.91C1181.41,1378.91 1168,1388.54 1158.77,1402.96L1158.77,1383L1123.4,1383L1123.4,1547.12L1159.09,1547.12L1159.09,1455.12C1159.09,1427.96 1170.76,1412.87 1194.09,1412.87C1201.73,1412.76 1209.32,1414.16 1216.41,1417L1227.41,1383.36C1219.51,1380.25 1209.21,1378.88 1201.98,1378.88M897.44,1383L839.08,1383L839.08,1333.21L803,1333.21L803,1383L769.71,1383L769.71,1415.62L803,1415.62L803,1490.49C803,1528.57 817.78,1551.25 860,1551.25C875.49,1551.25 893.33,1546.45 904.65,1538.56L894.34,1508C883.69,1514.17 872.02,1517.28 862.74,1517.28C844.9,1517.28 839.08,1506.28 839.08,1489.81L839.08,1415.65L897.44,1415.65L897.44,1383ZM363.85,1547.16L363.85,1444.16C363.85,1405.37 339.13,1379.27 299.28,1378.92C278.33,1378.57 256.72,1385.09 241.59,1408.12C230.27,1389.92 212.43,1378.92 187.35,1378.92C169.82,1378.92 152.69,1384.07 139.28,1403.29L139.28,1383L103.56,1383L103.56,1547.12L139.56,1547.12L139.56,1456.12C139.56,1427.63 155.36,1412.49 179.76,1412.49C203.46,1412.49 215.45,1427.94 215.45,1455.76L215.45,1547.1L251.53,1547.1L251.53,1456.1C251.53,1427.61 268,1412.47 291.69,1412.47C316.06,1412.47 327.69,1427.92 327.69,1455.74L327.69,1547.08L363.85,1547.16Z" style="fill:rgb(35,31,32);fill-rule:nonzero;"/>
                        <path d="M1980.94,1001.22L1980.94,977.22L1974.69,977.22L1967.46,993.69L1960.27,977.22L1954,977.22L1954,1001.22L1958.44,1001.22L1958.44,983.14L1965.2,998.74L1969.8,998.74L1976.56,983.1L1976.56,1001.22L1980.96,1001.22L1980.94,1001.22ZM1941.29,1001.22L1941.29,981.33L1949.29,981.33L1949.29,977.28L1928.85,977.28L1928.85,981.33L1936.85,981.33L1936.85,1001.22L1941.29,1001.22Z" style="fill:rgb(247,148,16);fill-rule:nonzero;"/>
                        <path d="M1270.57,1104.15L729.71,1104.15L729.71,132.15L1270.58,132.15L1270.57,1104.15Z" style="fill:rgb(255,95,0);fill-rule:nonzero;"/>
                        <path d="M764,618.17C764,421 856.32,245.36 1000.08,132.17C891.283,46.382 756.641,-0.205 618.09,-0C276.72,0 0,276.76 0,618.17C0,959.58 276.72,1236.34 618.09,1236.34C756.644,1236.55 891.29,1189.96 1000.09,1104.17C856.34,991 764,815.35 764,618.17" style="fill:rgb(235,0,27);fill-rule:nonzero;"/>
                        <path d="M2000.25,618.17C2000.25,959.58 1723.53,1236.34 1382.16,1236.34C1243.59,1236.54 1108.93,1189.96 1000.11,1104.17C1143.91,990.98 1236.23,815.35 1236.23,618.17C1236.23,420.99 1143.91,245.36 1000.11,132.17C1108.93,46.384 1243.58,-0.201 1382.15,0C1723.52,0 2000.24,276.76 2000.24,618.17" style="fill:rgb(247,158,27);fill-rule:nonzero;"/>
                    </g>
                </g>
            </g>
        </g>
    </g>
</svg>
